outputs/icons/file/save_round.svg

<svg xmlns="http://www.w3.org/2000/svg" width="1200" height="1200" fill="none"><path fill="#000" d="M850 150H250c-55.5 0-100 45-100 100v700c0 55 44.5 100 100 100h700c55 0 100-45 100-100V350zM600 950c-83 0-150-67-150-150s67-150 150-150 150 67 150 150-67 150-150 150m150-500H250V250h500z"/></svg>

<svg width="1200" height="1200" viewBox="0 0 1200 1200" fill="none" xmlns="http://www.w3.org/2000/svg"><path d="M850 150H250C194.5 150 150 195 150 250V950C150 1005 194.5 1050 250 1050H950C1005 1050 1050 1005 1050 950V350L850 150ZM600 950C517 950 450 883 450 800C450 717 517 650 600 650C683 650 750 717 750 800C750 883 683 950 600 950ZM750 450H250V250H750V450Z" fill="#1D1E23"/></svg>
